resources/hourglass.svg

<svg xmlns="http://www.w3.org/2000/svg" width="16" height="16" viewBox="0 0 16 16"><g fill="#f4f4f7" fill-rule="evenodd"><path fill="#f4f4f7" d="M13,1 C13.5522847,1 14,1.44771525 14,2 C14,2.55228475 13.5522847,3 13,3 L12.9854217,2.99990801 C12.9950817,3.16495885 13,3.33173274 13,3.5 C13,5.24679885 10.9877318,6.01090495 10.9877318,8.0017538 C10.9877318,9.99260264 13,10.7536922 13,12.5 C13,12.6686079 12.9950617,12.8357163 12.985363,13.0010943 L13,13 C13.5522847,13 14,13.4477153 14,14 C14,14.5522847 13.5522847,15 13,15 L3,15 C2.44771525,15 2,14.5522847 2,14 C2,13.4477153 2.44771525,13 3,13 L3.01463704,13.0010943 C3.00493827,12.8357163 3,12.6686079 3,12.5 C3,10.7536922 4.9877318,9.99260264 5,8.0017538 C5.0122682,6.01090495 3,5.24679885 3,3.5 C3,3.33173274 3.00491834,3.16495885 3.01457832,2.99990801 L3,3 C2.44771525,3 2,2.55228475 2,2 C2,1.44771525 2.44771525,1 3,1 L13,1 Z M10.987,3 L5.012,3 L5.00308914,3.24815712 C5.00103707,3.33163368 5,3.4155948 5,3.5 C5,5.36125069 6.99153646,6.01774089 6.99153646,8.0017538 C6.99153646,9.98576671 5,10.6393737 5,12.5 L5.00307746,12.7513676 L5.01222201,12.9998392 L5.60191711,12.9988344 L6.0425138,12.2959826 C7.02362731,10.7653275 7.67612271,10 8,10 C8.37014547,10 9.16950644,10.9996115 10.3980829,12.9988344 L10.987778,12.9998392 C10.9958674,12.8352104 11,12.66849 11,12.5 C11,10.6393737 8.98689779,10.0147381 8.98689779,8.0017538 C8.98689779,5.98876953 11,5.36125069 11,3.5 L10.9969109,3.24815712 L10.987,3 Z"/><path fill="#f4f4f7" d="M6,4 L10,4 C8.95166016,6 8.28499349,7 8,7 C7.71500651,7 7.04833984,6 6,4 Z"/></g></svg>

<svg width="16" height="16">
  <g fill="#f4f4f7" fill-rule="evenodd">
    <path d="M13 1a1 1 0 0 1 0 2h-.015c.01.165.015.332.015.5 0 1.747-2.012 2.51-2.012 4.502 0 1.99 2.012 2.752 2.012 4.498 0 .169-.005.336-.015.501L13 13a1 1 0 0 1 0 2H3a1 1 0 0 1 0-2l.015.001A8.56 8.56 0 0 1 3 12.5c0-1.746 1.988-2.507 2-4.498C5.012 6.01 3 5.247 3 3.5c0-.168.005-.335.015-.5H3a1 1 0 1 1 0-2h10Zm-2.013 2H5.012l-.009.248L5 3.5c0 1.861 1.992 2.518 1.992 4.502S5 10.639 5 12.5l.003.251.01.249.589-.001.44-.703C7.025 10.766 7.677 10 8 10c.37 0 1.17 1 2.398 2.999h.59c.008-.164.012-.33.012-.499 0-1.86-2.013-2.485-2.013-4.498C8.987 5.989 11 5.362 11 3.5l-.003-.252-.01-.248Z"/>
    <path d="M6 4h4C8.952 6 8.285 7 8 7c-.285 0-.952-1-2-3Z"/>
  </g>
</svg>
